img/plan.svg

<svg width="40" height="40" viewBox="0 0 40 40" fill="none" xmlns="http://www.w3.org/2000/svg">
<path d="M31.2502 11.875H20.0001C19.5686 11.875 19.2188 12.2247 19.2188 12.6562C19.2188 13.0877 19.5686 13.4375 20.0001 13.4375H31.2502C31.6817 13.4375 32.0314 13.0877 32.0314 12.6562C32.0314 12.2247 31.6817 11.875 31.2502 11.875Z" fill="#FAFAFA"/>
<path d="M28.5164 15.854C28.3711 15.7086 28.1695 15.625 27.9641 15.625C27.7586 15.625 27.557 15.7086 27.4117 15.854C27.2664 15.9993 27.1828 16.2008 27.1828 16.4063C27.1828 16.6118 27.2664 16.8133 27.4117 16.9586C27.557 17.1039 27.7586 17.1875 27.9641 17.1875C28.1695 17.1875 28.3711 17.1039 28.5164 16.9586C28.6617 16.8133 28.7453 16.6118 28.7453 16.4063C28.7453 16.2008 28.6617 15.9993 28.5164 15.854Z" fill="#FAFAFA"/>
<path d="M20.5516 3.58835C20.4063 3.44304 20.2047 3.35944 19.9993 3.35944C19.7938 3.35944 19.5923 3.44304 19.4469 3.58835C19.3016 3.73366 19.218 3.93522 19.218 4.14069C19.218 4.34616 19.3016 4.54772 19.4469 4.69303C19.5923 4.83835 19.7938 4.92194 19.9993 4.92194C20.2047 4.92194 20.4063 4.83835 20.5516 4.69303C20.6969 4.54772 20.7805 4.34616 20.7805 4.14069C20.7805 3.93522 20.6969 3.73366 20.5516 3.58835Z" fill="#FAFAFA"/>
<path d="M24.6779 15.625H20.0001C19.5686 15.625 19.2188 15.9747 19.2188 16.4062C19.2188 16.8377 19.5686 17.1875 20.0001 17.1875H24.6779C25.1094 17.1875 25.4592 16.8377 25.4592 16.4062C25.4592 15.9747 25.1094 15.625 24.6779 15.625Z" fill="#FAFAFA"/>
<path d="M31.2502 20.3125H20.0001C19.5686 20.3125 19.2188 20.6622 19.2188 21.0937C19.2188 21.5252 19.5686 21.875 20.0001 21.875H31.2502C31.6817 21.875 32.0314 21.5252 32.0314 21.0937C32.0314 20.6622 31.6817 20.3125 31.2502 20.3125Z" fill="#FAFAFA"/>
<path d="M28.5164 24.2914C28.3711 24.1461 28.1695 24.0625 27.9641 24.0625C27.7586 24.0625 27.557 24.1461 27.4117 24.2914C27.2664 24.4367 27.1828 24.6383 27.1828 24.8438C27.1828 25.0492 27.2664 25.2508 27.4117 25.3961C27.557 25.5414 27.7586 25.625 27.9641 25.625C28.1695 25.625 28.3711 25.5414 28.5164 25.3961C28.6617 25.2508 28.7453 25.0492 28.7453 24.8438C28.7453 24.6383 28.6617 24.4367 28.5164 24.2914Z" fill="#FAFAFA"/>
<path d="M24.6779 24.0625H20.0001C19.5686 24.0625 19.2188 24.4122 19.2188 24.8437C19.2188 25.2752 19.5686 25.6249 20.0001 25.6249H24.6779C25.1094 25.6249 25.4592 25.2752 25.4592 24.8437C25.4592 24.4122 25.1094 24.0625 24.6779 24.0625Z" fill="#FAFAFA"/>
<path d="M31.2502 28.7499H20.0001C19.5686 28.7499 19.2188 29.0997 19.2188 29.5312C19.2188 29.9627 19.5686 30.3124 20.0001 30.3124H31.2502C31.6817 30.3124 32.0314 29.9627 32.0314 29.5312C32.0314 29.0997 31.6817 28.7499 31.2502 28.7499Z" fill="#FAFAFA"/>
<path d="M28.5164 32.7289C28.3711 32.5836 28.1695 32.5 27.9641 32.5C27.7586 32.5 27.557 32.5836 27.4117 32.7289C27.2664 32.8743 27.1828 33.0758 27.1828 33.2813C27.1828 33.4868 27.2664 33.6883 27.4117 33.8336C27.557 33.9789 27.7586 34.0625 27.9641 34.0625C28.1695 34.0625 28.3711 33.9789 28.5164 33.8336C28.6617 33.6883 28.7453 33.4868 28.7453 33.2813C28.7453 33.0758 28.6617 32.8743 28.5164 32.7289Z" fill="#FAFAFA"/>
<path d="M24.6779 32.4999H20.0001C19.5686 32.4999 19.2188 32.8497 19.2188 33.2812C19.2188 33.7127 19.5686 34.0624 20.0001 34.0624H24.6779C25.1094 34.0624 25.4592 33.7127 25.4592 33.2812C25.4592 32.8497 25.1094 32.4999 24.6779 32.4999Z" fill="#FAFAFA"/>
<path d="M32.7533 3.04695H26.7862C25.9236 2.225 24.7576 1.71875 23.4749 1.71875H22.7905C22.2673 0.682967 21.1924 0 20 0C18.8076 0 17.7327 0.682967 17.2094 1.71875H16.5234C15.2407 1.71875 14.0748 2.225 13.2122 3.04695H7.2468C5.14642 3.04695 3.43759 4.75577 3.43759 6.85616V36.1908C3.43759 38.2912 5.14642 40 7.2468 40H32.7532C34.8536 40 36.5625 38.2912 36.5625 36.1908V6.85616C36.5625 4.75577 34.8537 3.04695 32.7533 3.04695ZM16.5235 3.28124H17.7412C18.0926 3.28124 18.4007 3.04663 18.4942 2.70796C18.6805 2.03351 19.2997 1.5625 20.0001 1.5625C20.7004 1.5625 21.3196 2.03351 21.5058 2.70796C21.5994 3.04663 21.9076 3.28124 22.2589 3.28124H23.4749C25.1706 3.28124 26.5664 4.58984 26.7057 6.25007H13.2927C13.432 4.58984 14.8279 3.28124 16.5235 3.28124ZM35 36.1909C35 37.4297 33.9921 38.4376 32.7533 38.4376H7.2468C6.00798 38.4376 5.00009 37.4297 5.00009 36.1909V6.85616C5.00009 5.61733 6.00798 4.60944 7.2468 4.60944H12.1177C11.8617 5.19632 11.7188 5.84335 11.7188 6.5235V7.03131C11.7188 7.4628 12.0686 7.81256 12.5001 7.81256H27.4984C27.9299 7.81256 28.2797 7.4628 28.2797 7.03131V6.5235C28.2797 5.84343 28.1368 5.19632 27.8808 4.60944H32.7533C33.9921 4.60944 35 5.61733 35 6.85616V36.1909Z" fill="#FAFAFA"/>
<path d="M15.032 11.6872C14.7269 11.3821 14.2323 11.3821 13.9272 11.6871L10.5864 15.028L9.55727 13.9987C9.25219 13.6937 8.75751 13.6937 8.45235 13.9987C8.14727 14.3038 8.14727 14.7985 8.45235 15.1037L10.034 16.6853C10.1866 16.8379 10.3865 16.9141 10.5864 16.9141C10.7863 16.9141 10.9863 16.8379 11.1388 16.6853L15.032 12.7921C15.3371 12.487 15.3371 11.9923 15.032 11.6872Z" fill="#FAFAFA"/>
<path d="M13.1251 28.7499H9.37508C8.9436 28.7499 8.59383 29.0997 8.59383 29.5312V33.2812C8.59383 33.7127 8.9436 34.0624 9.37508 34.0624H13.1251C13.5566 34.0624 13.9063 33.7127 13.9063 33.2812V29.5312C13.9063 29.0997 13.5566 28.7499 13.1251 28.7499ZM12.3438 32.4999H10.1563V30.3124H12.3438V32.4999Z" fill="#FAFAFA"/>
<path d="M13.1251 20.3125H9.37508C8.9436 20.3125 8.59383 20.6622 8.59383 21.0937V24.8437C8.59383 25.2752 8.9436 25.625 9.37508 25.625H13.1251C13.5566 25.625 13.9063 25.2752 13.9063 24.8437V21.0937C13.9063 20.6622 13.5566 20.3125 13.1251 20.3125ZM12.3438 24.0625H10.1563V21.875H12.3438V24.0625Z" fill="#FAFAFA"/>
</svg>

<svg width="40" height="40" fill="none"><path d="M31.25 11.875H20a.781.781 0 100 1.563h11.25a.781.781 0 000-1.563zM28.516 15.854a.787.787 0 00-.552-.229.787.787 0 00-.552.229.787.787 0 00-.23.552.787.787 0 00.781.781.787.787 0 00.553-.228.787.787 0 00.23-.553.787.787 0 00-.23-.552zM20.552 3.588a.787.787 0 00-.553-.229.787.787 0 00-.552.23.787.787 0 00-.229.552c0 .205.084.407.229.552a.787.787 0 00.552.229.787.787 0 00.553-.229.787.787 0 00.229-.552.787.787 0 00-.23-.553zM24.678 15.625H20a.781.781 0 100 1.563h4.678a.781.781 0 000-1.563zM31.25 20.313H20a.781.781 0 100 1.562h11.25a.781.781 0 000-1.563zM28.516 24.291a.787.787 0 00-.552-.229.787.787 0 00-.552.23.787.787 0 00-.23.552.787.787 0 00.781.781.787.787 0 00.553-.229.787.787 0 00.23-.552.787.787 0 00-.23-.553zM24.678 24.063H20a.781.781 0 100 1.562h4.678a.781.781 0 100-1.563zM31.25 28.75H20a.781.781 0 000 1.562h11.25a.781.781 0 100-1.562zM28.516 32.729a.787.787 0 00-.552-.229.787.787 0 00-.552.229.787.787 0 00-.23.552.787.787 0 00.781.781.787.787 0 00.553-.228.787.787 0 00.23-.553.787.787 0 00-.23-.552zM24.678 32.5H20a.781.781 0 000 1.562h4.678a.781.781 0 100-1.562z" fill="#FAFAFA"/><path d="M32.753 3.047h-5.967a4.787 4.787 0 00-3.311-1.328h-.684A3.135 3.135 0 0020 0a3.135 3.135 0 00-2.79 1.719h-.687a4.786 4.786 0 00-3.31 1.328H7.246c-2.1 0-3.81 1.709-3.81 3.81V36.19c0 2.1 1.71 3.809 3.81 3.809h25.506c2.1 0 3.81-1.709 3.81-3.81V6.857c0-2.1-1.71-3.809-3.81-3.809zm-16.23.234h1.218c.352 0 .66-.234.753-.573A1.566 1.566 0 0120 1.562c.7 0 1.32.472 1.506 1.146a.781.781 0 00.753.573h1.216a3.247 3.247 0 013.23 2.97H13.294a3.247 3.247 0 013.23-2.97zM35 36.191a2.25 2.25 0 01-2.247 2.247H7.247A2.25 2.25 0 015 36.19V6.856A2.25 2.25 0 017.247 4.61h4.87a4.775 4.775 0 00-.398 1.915v.507c0 .432.35.782.781.782h14.998c.432 0 .782-.35.782-.782v-.507c0-.68-.143-1.328-.4-1.915h4.873A2.25 2.25 0 0135 6.856v29.335z" fill="#FAFAFA"/><path d="M15.032 11.687a.781.781 0 00-1.105 0l-3.34 3.341-1.03-1.03a.782.782 0 00-1.105 1.106l1.582 1.581a.779.779 0 001.105 0l3.893-3.893a.781.781 0 000-1.105zM13.125 28.75h-3.75a.781.781 0 00-.781.781v3.75c0 .432.35.781.781.781h3.75c.432 0 .781-.35.781-.78v-3.75a.781.781 0 00-.78-.782zm-.781 3.75h-2.188v-2.188h2.188V32.5zM13.125 20.313h-3.75a.781.781 0 00-.781.78v3.75c0 .432.35.782.781.782h3.75c.432 0 .781-.35.781-.781v-3.75a.781.781 0 00-.78-.782zm-.781 3.75h-2.188v-2.188h2.188v2.188z" fill="#FAFAFA"/></svg>
